X: 30718
T: Origins Of Agriculture, The
R: jig
M: 6/8
K: Aminor
|:e2B cde|fed ecA|eAB cde|d3 B3|
e2B cde|fed edc|fed edc|BAG A3:|
|:B2G Bcd|eAB cde|fed edc|d3 B2c|
B2G Bcd|eAB cde|fed edc|BAG A3:|
|:~f3 fgf|eae eae|fed edc|Bcd e3|
~f3 fgf|eae eae|fed edc|BAG A3:|

